;FLAVOR:Marlin
;TIME:15189
;Filament used: 9.32082m
;Layer height: 0.2
;MINX:61.938
;MINY:38.975
;MINZ:0.24
;MAXX:158.158
;MAXY:95.271
;MAXZ:59.09
;Generated with Cura_SteamEngine 4.8.0
M140 S60
M105
M190 S60
M104 S200
M105
M109 S200
M82 ;absolute extrusion mode
; Ender 3 Custom Start G-code
G92 E0 ; Reset Extruder
G28 ; Home all axes
G1 Z2.0 F3000 ; Move Z Axis up little to prevent scratching of Heat Bed
G1 X0.1 Y20 Z0.3 F5000.0 ; Move to start position
G1 X0.1 Y200.0 Z0.3 F1500.0 E15 ; Draw the first line
G1 X0.4 Y200.0 Z0.3 F5000.0 ; Move to side a little
G1 X0.4 Y20 Z0.3 F1500.0 E30 ; Draw the second line
G92 E0 ; Reset Extruder
G1 Z2.0 F3000 ; Move Z Axis up little to prevent scratching of Heat Bed
G1 X5 Y20 Z0.3 F5000.0 ; Move over to prevent blob squish
G92 E0
G92 E0
G1 F1500 E-6.5
;LAYER_COUNT:290
;LAYER:-6
M107
G0 F9000 X67.499 Y53.38 Z0.24
;TYPE:SUPPORT-INTERFACE
G1 F1500 E0
G1 F1125 X67.588 Y53.268 E0.01142
G1 X68.166 Y52.602 E0.08181
G1 X68.305 Y52.454 E0.09802
G1 X69.269 Y51.519 E0.20522
G1 X69.376 Y51.42 E0.21686
G1 X70.386 Y50.538 E0.32389
G1 X71.13 Y49.934 E0.40039
G1 X71.264 Y49.833 E0.41378
G1 X71.617 Y49.587 E0.44813
G1 X72.069 Y49.233 E0.49396
G1 X72.204 Y49.116 E0.50822
G1 X72.952 Y48.508 E0.58516
G1 X73.072 Y48.418 E0.59714
G1 X73.83 Y47.888 E0.67097
G1 X73.952 Y47.81 E0.68253
G1 X74.747 Y47.337 E0.75637
G1 X74.873 Y47.268 E0.76784
G1 X75.675 Y46.867 E0.83941
G1 X75.857 Y46.785 E0.85535
G1 X76.655 Y46.457 E0.92422
G1 X76.834 Y46.39 E0.93947
G1 X77.679 Y46.112 E1.01048
G1 X77.825 Y46.071 E1.02259
G1 X79 Y45.785 E1.11912
G1 X81.093 Y45.365 E1.28952
G1 X81.214 Y45.343 E1.29934
G1 X82.128 Y45.194 E1.37326
G1 X82.289 Y45.173 E1.38622
G1 X83.084 Y45.098 E1.44996
G1 X83.99 Y45.041 E1.52243
G1 X84.558 Y45.02 E1.5678
G1 X85.226 Y44.958 E1.62135
G1 X85.892 Y44.808 E1.67585
G1 X86.534 Y44.574 E1.73039
G1 X87.141 Y44.262 E1.78487
G1 X87.645 Y43.916 E1.83367
G1 X87.653 Y43.924 E1.83457
G1 X88.148 Y43.499 E1.88665
G1 X88.838 Y42.946 E1.95724
G1 X88.977 Y42.842 E1.97109
G1 X89.692 Y42.35 E2.04038
G1 X89.876 Y42.233 E2.05778
G1 X90.632 Y41.79 E2.12773
G1 X90.774 Y41.713 E2.14062
G1 X91.606 Y41.304 E2.21463
G1 X91.719 Y41.254 E2.22449
G1 X92.569 Y40.911 E2.29766
G1 X92.742 Y40.849 E2.31233
G1 X93.58 Y40.58 E2.38258
G1 X93.744 Y40.534 E2.39618
G1 X94.616 Y40.322 E2.46781
G1 X94.778 Y40.289 E2.48101
G1 X95.671 Y40.141 E2.55326
G1 X95.848 Y40.118 E2.56751
G1 X96.742 Y40.035 E2.63918
G1 X96.884 Y40.028 E2.65053
G1 X97.625 Y40.007 E2.7097
G1 X141.386 Y40.008 E6.2029
G1 X142.387 Y40.044 E6.28285
G1 X142.51 Y40.053 E6.2927
G1 X143.427 Y40.155 E6.36635
G1 X143.602 Y40.18 E6.38046
G1 X144.491 Y40.344 E6.45262
G1 X144.614 Y40.372 E6.46269
G1 X145.508 Y40.606 E6.53646
G1 X145.671 Y40.655 E6.55004
G1 X146.513 Y40.941 E6.62103
G1 X146.679 Y41.005 E6.63523
G1 X147.482 Y41.346 E6.70487
G1 X147.671 Y41.434 E6.72151
G1 X148.465 Y41.842 E6.79277
G1 X148.582 Y41.909 E6.80353
G1 X149.361 Y42.383 E6.87632
G1 X149.512 Y42.483 E6.89078
G1 X150.226 Y42.994 E6.96086
G1 X150.374 Y43.107 E6.97573
G1 X151.066 Y43.684 E7.04765
G1 X151.174 Y43.78 E7.05918
G1 X151.686 Y44.262 E7.11531
G1 X151.806 Y44.382 E7.12886
G1 X152.488 Y45.115 E7.20878
G1 X152.607 Y45.254 E7.22339
G1 X153.161 Y45.945 E7.29409
G1 X153.265 Y46.084 E7.30794
G1 X153.757 Y46.799 E7.37722
G1 X153.874 Y46.983 E7.39463
G1 X154.317 Y47.739 E7.46457
G1 X154.394 Y47.881 E7.47747
G1 X154.797 Y48.7 E7.55033
G1 X154.853 Y48.826 E7.56134
G1 X155.195 Y49.671 E7.6341
G1 X155.254 Y49.836 E7.64809
G1 X155.526 Y50.683 E7.7191
G1 X155.572 Y50.845 E7.73255
G1 X155.784 Y51.719 E7.80434
G1 X155.817 Y51.877 E7.81722
G1 X155.965 Y52.769 E7.8894
G1 X155.989 Y52.955 E7.90437
G1 X156.07 Y53.831 E7.97459
G1 X156.079 Y53.991 E7.98738
G1 X156.1 Y54.724 E8.04592
G1 X156.1 Y69.074 E9.1914
G1 X156.143 Y69.748 E9.24531
G1 X156.352 Y70.694 E9.32264
G1 X156.535 Y71.263 E9.37036
G1 X156.572 Y71.395 E9.3813
G1 X156.784 Y72.269 E9.45309
G1 X156.817 Y72.427 E9.46597
G1 X156.965 Y73.319 E9.53815
G1 X156.989 Y73.505 E9.55312
G1 X157.071 Y74.39 E9.62407
G1 X157.079 Y74.532 E9.63542
G1 X157.1 Y75.274 E9.69467
G1 X157.1 Y77.476 E9.87045
G1 X157.064 Y78.482 E9.9508
G1 X157.054 Y78.617 E9.96161
G1 X156.952 Y79.534 E10.03526
G1 X156.927 Y79.709 E10.04937
G1 X156.765 Y80.587 E10.12064
G1 X156.735 Y80.721 E10.1316
G1 X156.504 Y81.606 E10.20461
G1 X156.452 Y81.778 E10.21895
G1 X156.166 Y82.62 E10.28994
G1 X156.102 Y82.786 E10.30414
G1 X155.761 Y83.589 E10.37378
G1 X155.68 Y83.764 E10.38917
G1 X155.278 Y84.545 E10.45929
G1 X154.951 Y85.128 E10.51264
G1 X154.969 Y85.139 E10.51433
G1 X154.868 Y85.337 E10.53207
G1 X154.754 Y85.607 E10.55547
G1 X154.686 Y85.752 E10.56825
G1 X154.265 Y86.572 E10.64183
G1 X154.198 Y86.689 E10.65259
G1 X153.724 Y87.468 E10.72538
G1 X153.624 Y87.619 E10.73984
G1 X153.113 Y88.333 E10.80993
G1 X153 Y88.481 E10.82479
G1 X152.423 Y89.173 E10.89671
G1 X152.327 Y89.281 E10.90825
G1 X151.845 Y89.793 E10.96438
G1 X151.688 Y89.949 E10.98204
G1 X150.992 Y90.595 E11.05784
G1 X150.853 Y90.714 E11.07245
G1 X150.162 Y91.268 E11.14315
G1 X150.023 Y91.372 E11.15701
G1 X149.308 Y91.864 E11.22629
G1 X149.124 Y91.981 E11.24369
G1 X148.368 Y92.424 E11.31364
G1 X148.226 Y92.501 E11.32653
G1 X147.398 Y92.908 E11.40018
G1 X147.281 Y92.96 E11.4104
G1 X146.426 Y93.305 E11.484
G1 X146.263 Y93.363 E11.49781
G1 X145.42 Y93.634 E11.56849
G1 X145.256 Y93.68 E11.58209
G1 X144.384 Y93.892 E11.65372
G1 X144.222 Y93.925 E11.66692
G1 X143.329 Y94.073 E11.73917
G1 X143.152 Y94.096 E11.75342
G1 X142.258 Y94.179 E11.82509
G1 X142.116 Y94.186 E11.83644
G1 X141.375 Y94.207 E11.89561
G1 X97.614 Y94.206 E15.38881
G1 X96.613 Y94.17 E15.46876
G1 X96.49 Y94.161 E15.47861
G1 X95.573 Y94.059 E15.55226
G1 X95.398 Y94.034 E15.56637
G1 X94.509 Y93.87 E15.63853
G1 X94.386 Y93.842 E15.6486
G1 X93.492 Y93.608 E15.72237
G1 X93.329 Y93.559 E15.73595
G1 X92.487 Y93.273 E15.80694
G1 X92.321 Y93.209 E15.82114
G1 X91.518 Y92.868 E15.89078
G1 X91.342 Y92.786 E15.90628
G1 X90.535 Y92.372 E15.97868
G1 X90.418 Y92.305 E15.98944
G1 X89.639 Y91.831 E16.06223
G1 X89.488 Y91.731 E16.07669
G1 X88.774 Y91.22 E16.14677
G1 X88.626 Y91.107 E16.16164
G1 X87.543 Y90.204 E16.27419
G1 X87.533 Y90.217 E16.2755
G1 X87.443 Y90.146 E16.28465
G1 X86.859 Y89.794 E16.33908
G1 X86.233 Y89.519 E16.39366
G1 X85.579 Y89.324 E16.44814
G1 X84.91 Y89.215 E16.50225
G1 X84.547 Y89.191 E16.53129
G1 X84.016 Y89.174 E16.57369
G1 X82.669 Y89.088 E16.68144
G1 X81.703 Y88.991 E16.75894
G1 X81.569 Y88.973 E16.76973
G1 X80.697 Y88.821 E16.84038
G1 X80.479 Y88.773 E16.8582
G1 X79.22 Y88.44 E16.96216
G1 X79.111 Y88.408 E16.97123
G1 X77.883 Y88.016 E17.07412
G1 X77.762 Y87.974 E17.08435
G1 X76.896 Y87.661 E17.15785
G1 X76.76 Y87.608 E17.1695
G1 X76.308 Y87.417 E17.20867
G1 X74.904 Y86.788 E17.33148
G1 X74.033 Y86.36 E17.40895
G1 X73.891 Y86.283 E17.42184
G1 X73.135 Y85.84 E17.49179
G1 X72.951 Y85.724 E17.50915
G1 X72.251 Y85.241 E17.57704
G1 X72.091 Y85.122 E17.59295
G1 X71.245 Y84.435 E17.67995
G1 X71.152 Y84.356 E17.68969
G1 X69.847 Y83.202 E17.82875
G1 X69.164 Y82.554 E17.9039
G1 X69.029 Y82.415 E17.91937
G1 X68.418 Y81.743 E17.99187
G1 X68.341 Y81.653 E18.00132
G1 X67.94 Y81.157 E18.05223
G1 X66.405 Y79.153 E18.25374
G1 X65.818 Y78.328 E18.33456
G1 X65.721 Y78.18 E18.34869
G1 X65.259 Y77.418 E18.41982
G1 X65.175 Y77.267 E18.43361
G1 X64.769 Y76.469 E18.50508
G1 X64.702 Y76.323 E18.5179
G1 X64.354 Y75.5 E18.58923
G1 X64.292 Y75.337 E18.60315
G1 X64.011 Y74.502 E18.67348
G1 X63.956 Y74.31 E18.68942
G1 X63.636 Y72.993 E18.79761
G1 X63.615 Y72.896 E18.80553
G1 X63.238 Y70.898 E18.96783
G1 X63.086 Y69.892 E19.04905
G1 X63.072 Y69.776 E19.05838
G1 X63.004 Y68.97 E19.12294
G1 X62.917 Y67.491 E19.24121
G1 X62.913 Y67.408 E19.24784
G1 X62.891 Y66.454 E19.32401
G1 X62.894 Y66.283 E19.33767
G1 X62.938 Y65.415 E19.40704
G1 X62.955 Y65.226 E19.42219
G1 X63.139 Y63.897 E19.52929
G1 X63.156 Y63.792 E19.53778
G1 X63.406 Y62.478 E19.64455
G1 X63.627 Y61.51 E19.72381
G1 X63.653 Y61.409 E19.73213
G1 X63.815 Y60.852 E19.77844
G1 X64.073 Y60.029 E19.84729
G1 X64.406 Y59.085 E19.92719
G1 X64.449 Y58.976 E19.93654
G1 X64.745 Y58.283 E19.9967
G1 X65.182 Y57.333 E20.08017
G1 X65.349 Y56.984 E20.11105
G1 X65.835 Y55.998 E20.1988
G1 X66.283 Y55.166 E20.27423
G1 X66.383 Y54.996 E20.28997
G1 X66.851 Y54.261 E20.35953
G1 X66.947 Y54.122 E20.37301
G1 X67.499 Y53.38 E20.44684
G0 F9000 X67.2 Y53.781
G1 F1125 X67.2 Y80.19 E22.55492
G0 F9000 X68.8 Y82.163
G1 F1125 X68.8 Y51.973 E24.96481
G0 F9000 X70.4 Y50.526
G1 F1125 X70.4 Y83.691 E27.61219
G0 F9000 X72 Y85.048
G1 F1125 X72 Y49.287 E30.46678
G0 F9000 X73.6 Y48.048
G1 F1125 X73.6 Y86.112 E33.50522
G0 F9000 X75.2 Y86.92
G1 F1125 X75.2 Y47.104 E36.6835
G0 F9000 X76.8 Y46.402
G1 F1125 X76.8 Y87.623 E39.97394
G0 F9000 X78.4 Y88.181
G1 F1125 X78.4 Y45.931 E43.34652
G0 F9000 X80 Y45.584
G1 F1125 X80 Y88.646 E46.78391
G0 F9000 X81.6 Y88.977
G1 F1125 X81.6 Y45.28 E50.272
G0 F9000 X83.2 Y45.09
G1 F1125 X83.2 Y89.121 E53.78674
G0 F9000 X84.8 Y89.207
G1 F1125 X84.8 Y44.997 E57.31578
G0 F9000 X86.4 Y44.622
G1 F1125 X86.4 Y89.592 E60.90548
G0 F9000 X88 Y90.585
G1 F1125 X88 Y43.626 E64.65395
G0 F9000 X89.6 Y42.413
G1 F1125 X89.6 Y91.805 E68.59663
G0 F9000 X91.2 Y92.713
G1 F1125 X91.2 Y41.503 E72.68443
G0 F9000 X92.8 Y40.83
G1 F1125 X92.8 Y93.379 E76.87912
G0 F9000 X94.4 Y93.845
G1 F1125 X94.4 Y40.374 E81.14741
G0 F9000 X96 Y40.103
G1 F1125 X96 Y94.106 E85.45816
G0 F9000 X97.6 Y94.205
G1 F1125 X97.6 Y40.007 E89.78448
G0 F9000 X99.2 Y40.008
G1 F1125 X99.2 Y94.206 E94.1108
G0 F9000 X100.8 Y94.206
G1 F1125 X100.8 Y40.008 E98.43712
G0 F9000 X102.4 Y40.008
G1 F1125 X102.4 Y94.206 E102.76344
G0 F9000 X104 Y94.206
G1 F1125 X104 Y40.008 E107.08975
G0 F9000 X105.6 Y40.008
G1 F1125 X105.6 Y94.206 E111.41607
G0 F9000 X107.2 Y94.206
G1 F1125 X107.2 Y40.008 E115.74239
G0 F9000 X108.8 Y40.008
G1 F1125 X108.8 Y94.206 E120.06871
G0 F9000 X110.4 Y94.206
G1 F1125 X110.4 Y40.008 E124.39503
G0 F9000 X112 Y40.008
G1 F1125 X112 Y94.206 E128.72135
G0 F9000 X113.6 Y94.206
G1 F1125 X113.6 Y40.008 E133.04767
G0 F9000 X115.2 Y40.008
G1 F1125 X115.2 Y94.206 E137.37398
G0 F9000 X116.8 Y94.206
G1 F1125 X116.8 Y40.008 E141.7003
G0 F9000 X118.4 Y40.008
G1 F1125 X118.4 Y94.206 E146.02662
G0 F9000 X120 Y94.206
G1 F1125 X120 Y40.008 E150.35294
G0 F9000 X121.6 Y40.008
G1 F1125 X121.6 Y94.206 E154.67926
G0 F9000 X123.2 Y94.206
G1 F1125 X123.2 Y40.008 E159.00558
G0 F9000 X124.8 Y40.008
G1 F1125 X124.8 Y94.206 E163.3319
G0 F9000 X126.4 Y94.206
G1 F1125 X126.4 Y40.008 E167.65822
G0 F9000 X128 Y40.008
G1 F1125 X128 Y94.206 E171.98453
G0 F9000 X129.6 Y94.206
G1 F1125 X129.6 Y40.008 E176.31085
G0 F9000 X131.2 Y40.008
G1 F1125 X131.2 Y94.206 E180.63717
G0 F9000 X132.8 Y94.206
G1 F1125 X132.8 Y40.008 E184.96349
G0 F9000 X134.4 Y40.008
G1 F1125 X134.4 Y94.206 E189.28981
G0 F9000 X136 Y94.206
G1 F1125 X136 Y40.008 E193.61613
G0 F9000 X137.6 Y40.008
G1 F1125 X137.6 Y94.206 E197.94245
G0 F9000 X139.2 Y94.206
G1 F1125 X139.2 Y40.008 E202.26877
G0 F9000 X140.8 Y40.008
G1 F1125 X140.8 Y94.206 E206.59508
G0 F9000 X142.4 Y94.166
G1 F1125 X142.4 Y40.045 E210.91526
G0 F9000 X144 Y40.254
G1 F1125 X144 Y93.962 E215.20246
G0 F9000 X145.6 Y93.577
G1 F1125 X145.6 Y40.634 E219.4286
G0 F9000 X147.2 Y41.227
G1 F1125 X147.2 Y92.993 E223.56079
G0 F9000 X148.8 Y92.171
G1 F1125 X148.8 Y42.042 E227.5623
G0 F9000 X150.4 Y43.129
G1 F1125 X150.4 Y91.078 E231.3898
G0 F9000 X152 Y89.629
G1 F1125 X152 Y44.591 E234.98492
G0 F9000 X153.6 Y46.571
G1 F1125 X153.6 Y87.653 E238.26427
G0 F9000 X155.2 Y84.685
G1 F1125 X155.2 Y49.685 E241.05812
G1 F1500 E234.55812
G0 F9000 X156.264 Y49.502
G0 X156.825 Y51.493
G0 X157.046 Y52.831
G0 X157.112 Y53.898
G0 X157.825 Y72.043
G0 X156.8 Y72.346
G1 F1500 E241.05812
G1 F1125 X156.8 Y80.398 E241.70086
G1 F1500 E235.20086
G0 F9000 X157.846 Y80.591
G0 X157.464 Y82.11
G0 X156.731 Y84.028
G0 X155.113 Y87.233
G0 X153.966 Y88.971
G0 X152.56 Y90.583
G0 X151.537 Y91.529
G0 X149.89 Y92.756
G0 X148.722 Y93.443
G0 X146.806 Y94.3
G0 X145.525 Y94.711
G0 X143.485 Y95.126
G0 X141.395 Y95.271
G0 X96.56 Y95.233
G0 X95.234 Y95.086
G0 X93.207 Y94.634
G0 X75.888 Y88.394
G0 X73.374 Y87.213
G0 X71.638 Y86.111
G0 X69.196 Y84.049
G0 X67.625 Y82.452
G0 X65.447 Y79.593
G0 X64.824 Y78.753
G0 X65.6 Y77.98
G1 F1500 E241.70086
G1 F1125 X65.6 Y56.474 E243.41757
G0 F9000 X64 Y60.261
G1 F1125 X64 Y74.463 E244.55123
G1 F1500 E238.05123
G0 F300 X64 Y74.463 Z0.54
G0 F9000 X62.997 Y74.827
G0 X63.73 Y76.756
G0 X64.343 Y77.959
G0 X65.487 Y79.701
G0 X66.356 Y79.084
;TIME_ELAPSED:178.826910
;LAYER:-5
;TYPE:SUPPORT
G1 F1500 E244.55123
G1 F1125 X73.069 Y85.797 E245.49851
G1 X72.951 Y85.723 E245.51241
G1 X72.25 Y85.24 E245.59735
G1 X72.09 Y85.121 E245.61724
G1 X71.245 Y84.434 E245.72591
G1 X71.151 Y84.355 E245.73816
G1 X69.846 Y83.201 E245.91198
G1 X69.163 Y82.553 E246.00592
G1 X69.029 Y82.414 E246.02519
G1 X68.417 Y81.742 E246.11588
G1 X68.34 Y81.652 E246.1277
G1 X67.94 Y81.156 E246.19128
G1 X66.405 Y79.152 E246.44316
G1 F1500 E239.94316
G0 F9000 X65.56 Y79.801
G0 X67.625 Y82.452
G0 X69.196 Y84.049
G0 X71.173 Y85.718
G0 X72.369 Y86.615
G0 X73.069 Y85.797
G1 F1500 E246.44316
G1 F1125 X73.135 Y85.839 E246.45096
G1 X73.891 Y86.282 E246.53839
G1 X74.032 Y86.358 E246.55438
G1 X74.903 Y86.787 E246.65126
G1 X75.936 Y87.249 E246.76417
G1 X64.476 Y75.79 E248.38123
G1 X64.353 Y75.499 E248.41275
G1 X64.292 Y75.335 E248.43021
G1 X64.01 Y74.501 E248.51805
G1 X63.955 Y74.309 E248.53798
G1 X63.81 Y73.709 E248.59957
G1 X78.225 Y88.124 E250.63369
G1 X79.111 Y88.406 E250.72646
G1 X79.22 Y88.439 E250.73783
G1 X80.217 Y88.703 E250.84074
G1 X63.429 Y71.914 E253.20977
G1 X63.237 Y70.897 E253.31304
G1 X63.132 Y70.203 E253.38308
G1 X81.943 Y89.014 E256.03751
G1 X82.669 Y89.086 E256.11031
G1 X83.481 Y89.138 E256.1915
G1 X62.984 Y68.64 E259.08392
G1 X62.916 Y67.49 E259.19886
G1 X62.912 Y67.407 E259.20716
G1 X62.906 Y67.148 E259.23301
G1 X84.983 Y89.226 E262.34838
G1 X85.579 Y89.323 E262.40863
G1 X86.233 Y89.518 E262.47673
G1 X86.858 Y89.793 E262.54486
G1 X87.125 Y89.953 E262.57592
G1 X62.92 Y65.748 E265.99151
G1 X62.938 Y65.414 E266.02488
G1 X62.955 Y65.224 E266.04391
G1 X63.059 Y64.473 E266.11956
G1 X91.397 Y92.811 E270.11836
G1 X91.518 Y92.867 E270.13167
G1 X92.321 Y93.207 E270.21868
G1 X92.487 Y93.272 E270.23646
G1 X93.328 Y93.558 E270.3251
G1 X93.491 Y93.607 E270.34208
G1 X93.648 Y93.648 E270.35827
G1 X63.257 Y63.257 E274.64677
G1 X63.405 Y62.477 E274.72599
G1 X63.495 Y62.081 E274.76651
G1 X95.456 Y94.042 E279.27655
G1 X95.572 Y94.059 E279.28825
G1 X96.488 Y94.161 E279.38021
G1 X96.611 Y94.169 E279.39251
G1 X97.012 Y94.183 E279.43255
G1 X63.783 Y60.955 E284.12145
G1 X63.814 Y60.851 E284.13228
G1 X64.072 Y60.029 E284.21824
G1 X64.123 Y59.881 E284.23386
G1 X98.449 Y94.206 E289.07756
G1 X99.863 Y94.206 E289.21865
G1 X64.502 Y58.846 E294.2084
G1 X64.744 Y58.282 E294.26964
G1 X64.935 Y57.864 E294.31549
G1 X101.277 Y94.206 E299.44374
G1 X102.691 Y94.206 E299.58483
G1 X65.387 Y56.902 E304.84883
G1 X65.833 Y55.997 E304.9495
G1 X65.855 Y55.956 E304.95414
G1 X104.105 Y94.206 E310.35163
G1 X105.52 Y94.206 E310.49282
G1 X66.354 Y55.041 E316.0195
G1 X66.381 Y54.995 E316.02482
G1 X66.85 Y54.261 E316.11173
G1 X66.906 Y54.178 E316.12172
G1 X106.934 Y94.206 E321.7701
G1 X108.348 Y94.206 E321.91119
G1 X67.508 Y53.366 E327.67416
G1 X67.587 Y53.268 E327.68672
G1 X68.161 Y52.605 E327.77422
G1 X109.762 Y94.206 E333.64457
G1 X111.176 Y94.206 E333.78566
G1 X68.873 Y51.903 E339.75507
G1 X69.268 Y51.519 E339.81004
G1 X69.374 Y51.42 E339.82451
