;FLAVOR:Marlin
;TIME:2930
;Filament used: 1.78429m
;Layer height: 0.2
;MINX:88.234
;MINY:110.233
;MINZ:0.2
;MAXX:131.766
;MAXY:134.766
;MAXZ:27
;Generated with Cura_SteamEngine 4.8.0
M140 S60
M105
M190 S60
M104 S200
M105
M109 S200
M82 ;absolute extrusion mode
; Ender 3 Custom Start G-code
G92 E0 ; Reset Extruder
G28 ; Home all axes
G1 Z2.0 F3000 ; Move Z Axis up little to prevent scratching of Heat Bed
G1 X0.1 Y20 Z0.3 F5000.0 ; Move to start position
G1 X0.1 Y200.0 Z0.3 F1500.0 E15 ; Draw the first line
G1 X0.4 Y200.0 Z0.3 F5000.0 ; Move to side a little
G1 X0.4 Y20 Z0.3 F1500.0 E30 ; Draw the second line
G92 E0 ; Reset Extruder
G1 Z2.0 F3000 ; Move Z Axis up little to prevent scratching of Heat Bed
G1 X5 Y20 Z0.3 F5000.0 ; Move over to prevent blob squish
G92 E0
G92 E0
G1 F1500 E-6.5
;LAYER_COUNT:135
;LAYER:0
M107
G0 F6000 X91.405 Y111.996 Z0.2
;TYPE:SKIRT
G1 F1500 E0
G1 F1200 X92.054 Y111.546 E0.02627
G1 X92.745 Y111.164 E0.05253
G1 X93.471 Y110.853 E0.0788
G1 X94.224 Y110.618 E0.10503
G1 X94.998 Y110.46 E0.13131
G1 X96.157 Y110.371 E0.16997
G1 X97.882 Y110.368 E0.22734
G1 X102.704 Y110.391 E0.38773
G1 X117.297 Y110.391 E0.87309
G1 X122.163 Y110.369 E1.03494
G1 X123.838 Y110.371 E1.09065
G1 X124.627 Y110.412 E1.11692
G1 X125.407 Y110.532 E1.14317
G1 X126.172 Y110.731 E1.16946
G1 X126.912 Y111.006 E1.19572
G1 X127.621 Y111.355 E1.222
G1 X128.29 Y111.773 E1.24824
G1 X128.914 Y112.257 E1.27451
G1 X129.486 Y112.801 E1.30076
G1 X130 Y113.401 E1.32704
G1 X130.451 Y114.049 E1.3533
G1 X130.834 Y114.74 E1.37958
G1 X131.145 Y115.466 E1.40584
G1 X131.381 Y116.219 E1.43209
G1 X131.54 Y116.993 E1.45837
G1 X131.629 Y118.171 E1.49766
G1 X131.629 Y126.829 E1.78563
G1 X131.589 Y127.618 E1.81191
G1 X131.47 Y128.398 E1.83815
G1 X131.272 Y129.163 E1.86443
G1 X130.998 Y129.903 E1.89068
G1 X130.65 Y130.612 E1.91695
G1 X130.232 Y131.283 E1.94324
G1 X129.749 Y131.907 E1.96948
G1 X129.206 Y132.48 E1.99574
G1 X128.607 Y132.995 E2.02201
G1 X127.959 Y133.446 E2.04827
G1 X127.268 Y133.83 E2.07457
G1 X126.543 Y134.142 E2.10082
G1 X125.79 Y134.379 E2.12707
G1 X125.016 Y134.538 E2.15336
G1 X124.231 Y134.619 E2.1796
G1 X123.834 Y134.629 E2.19281
G1 X118.957 Y134.632 E2.35502
G1 X106.01 Y134.609 E2.78564
G1 X98.777 Y134.631 E3.02621
G1 X96.165 Y134.629 E3.11309
G1 X95.376 Y134.588 E3.13937
G1 X94.596 Y134.468 E3.16561
G1 X93.832 Y134.27 E3.19186
G1 X93.091 Y133.995 E3.21815
G1 X92.382 Y133.647 E3.24442
G1 X91.712 Y133.229 E3.27069
G1 X91.088 Y132.745 E3.29695
G1 X90.516 Y132.201 E3.32321
G1 X90.002 Y131.602 E3.34946
G1 X89.551 Y130.954 E3.37572
G1 X89.168 Y130.263 E3.402
G1 X88.856 Y129.537 E3.42828
G1 X88.62 Y128.784 E3.45452
G1 X88.461 Y128.01 E3.4808
G1 X88.371 Y126.851 E3.51947
G1 X88.368 Y125.708 E3.55749
G1 X88.391 Y122.498 E3.66425
G1 X88.369 Y119.223 E3.77318
G1 X88.371 Y118.156 E3.80867
G1 X88.412 Y117.368 E3.83492
G1 X88.533 Y116.587 E3.8612
G1 X88.733 Y115.823 E3.88747
G1 X89.008 Y115.083 E3.91373
G1 X89.357 Y114.375 E3.93998
G1 X89.776 Y113.705 E3.96626
G1 X90.26 Y113.082 E3.9925
G1 X90.805 Y112.51 E4.01878
G1 X91.405 Y111.996 E4.04506
G0 F6000 X91.793 Y112.205
G1 F1200 X92.436 Y111.783 E4.07064
G1 X93.119 Y111.43 E4.09621
G1 X93.836 Y111.149 E4.12182
G1 X94.577 Y110.945 E4.14739
G1 X95.336 Y110.818 E4.17298
G1 X96.158 Y110.771 E4.20037
G1 X97.88 Y110.768 E4.25764
G1 X102.702 Y110.791 E4.41802
G1 X117.299 Y110.791 E4.90352
G1 X122.163 Y110.769 E5.0653
G1 X123.838 Y110.771 E5.12101
G1 X124.606 Y110.812 E5.14659
G1 X125.366 Y110.932 E5.17218
G1 X126.109 Y111.131 E5.19776
G1 X126.827 Y111.406 E5.22334
G1 X127.513 Y111.753 E5.24891
G1 X128.159 Y112.17 E5.27448
G1 X128.759 Y112.652 E5.30008
G1 X129.305 Y113.194 E5.32567
G1 X129.792 Y113.789 E5.35124
G1 X130.215 Y114.432 E5.37684
G1 X130.568 Y115.115 E5.40241
G1 X130.849 Y115.831 E5.42799
G1 X131.054 Y116.572 E5.45356
G1 X131.181 Y117.331 E5.47916
G1 X131.229 Y118.171 E5.50714
G1 X131.229 Y126.829 E5.79511
G1 X131.189 Y127.597 E5.82069
G1 X131.07 Y128.357 E5.84627
G1 X130.872 Y129.1 E5.87185
G1 X130.598 Y129.819 E5.89744
G1 X130.251 Y130.505 E5.92301
G1 X129.835 Y131.152 E5.94859
G1 X129.354 Y131.752 E5.97417
G1 X128.813 Y132.299 E5.99976
G1 X128.218 Y132.787 E6.02535
G1 X127.576 Y133.21 E6.05092
G1 X126.893 Y133.565 E6.07653
G1 X126.178 Y133.846 E6.10208
G1 X125.436 Y134.052 E6.12769
G1 X124.678 Y134.18 E6.15326
G1 X123.834 Y134.229 E6.18138
G1 X118.958 Y134.232 E6.34355
G1 X106.01 Y134.209 E6.77421
G1 X98.777 Y134.231 E7.01478
G1 X96.165 Y134.229 E7.10165
G1 X95.397 Y134.188 E7.12723
G1 X94.638 Y134.068 E7.15279
G1 X93.894 Y133.87 E7.1784
G1 X93.176 Y133.596 E7.20396
G1 X92.49 Y133.248 E7.22954
G1 X91.843 Y132.831 E7.25515
G1 X91.243 Y132.35 E7.28072
G1 X90.697 Y131.809 E7.30629
G1 X90.21 Y131.213 E7.33189
G1 X89.787 Y130.571 E7.35746
G1 X89.433 Y129.888 E7.38304
G1 X89.152 Y129.172 E7.40863
G1 X88.946 Y128.431 E7.43421
G1 X88.819 Y127.672 E7.4598
G1 X88.771 Y126.85 E7.48719
G1 X88.768 Y125.711 E7.52507
G1 X88.791 Y122.498 E7.63194
G1 X88.769 Y119.224 E7.74084
G1 X88.771 Y118.157 E7.77632
G1 X88.812 Y117.389 E7.8019
G1 X88.933 Y116.629 E7.8275
G1 X89.132 Y115.887 E7.85305
G1 X89.408 Y115.168 E7.87867
G1 X89.756 Y114.482 E7.90425
G1 X90.173 Y113.837 E7.9298
G1 X90.656 Y113.237 E7.95542
G1 X91.198 Y112.692 E7.98098
G1 X91.793 Y112.205 E8.00655
G0 F6000 X92.18 Y112.42
G1 F1200 X92.817 Y112.027 E8.03145
G1 X93.491 Y111.704 E8.05631
G1 X94.197 Y111.455 E8.08121
G1 X94.925 Y111.283 E8.10609
G1 X95.667 Y111.189 E8.13096
G1 X96.158 Y111.171 E8.1473
G1 X97.878 Y111.168 E8.20451
G1 X102.7 Y111.191 E8.36489
G1 X117.301 Y111.191 E8.85053
G1 X122.162 Y111.169 E9.0122
G1 X123.837 Y111.171 E9.06792
G1 X124.584 Y111.212 E9.0928
G1 X125.323 Y111.332 E9.1177
G1 X126.044 Y111.531 E9.14258
G1 X126.74 Y111.805 E9.16745
G1 X127.403 Y112.152 E9.19234
G1 X128.024 Y112.568 E9.2172
G1 X128.598 Y113.047 E9.24207
G1 X129.118 Y113.586 E9.26698
G1 X129.577 Y114.176 E9.29184
G1 X129.971 Y114.812 E9.31673
G1 X130.294 Y115.487 E9.34162
G1 X130.543 Y116.192 E9.36648
G1 X130.716 Y116.92 E9.39137
G1 X130.81 Y117.662 E9.41625
G1 X130.829 Y118.171 E9.43319
G1 X130.829 Y126.829 E9.72115
G1 X130.789 Y127.576 E9.74604
G1 X130.67 Y128.314 E9.7709
G1 X130.472 Y129.036 E9.7958
G1 X130.199 Y129.732 E9.82066
G1 X129.852 Y130.395 E9.84555
G1 X129.437 Y131.018 E9.87045
G1 X128.958 Y131.592 E9.89532
G1 X128.421 Y132.113 E9.9202
G1 X127.831 Y132.572 E9.94506
G1 X127.195 Y132.967 E9.96997
G1 X126.521 Y133.291 E9.99484
G1 X125.816 Y133.541 E10.01972
G1 X125.088 Y133.715 E10.04461
G1 X124.346 Y133.81 E10.06949
G1 X123.833 Y133.829 E10.08657
G1 X118.959 Y133.832 E10.24868
G1 X106.009 Y133.809 E10.6794
G1 X98.778 Y133.831 E10.9199
G1 X96.166 Y133.829 E11.00678
G1 X95.419 Y133.788 E11.03166
G1 X94.68 Y133.668 E11.05656
G1 X93.959 Y133.47 E11.08143
G1 X93.263 Y133.196 E11.10631
G1 X92.6 Y132.85 E11.13118
G1 X91.978 Y132.434 E11.15607
G1 X91.404 Y131.955 E11.18094
G1 X90.884 Y131.417 E11.20582
G1 X90.425 Y130.826 E11.23071
G1 X90.031 Y130.19 E11.25559
G1 X89.707 Y129.516 E11.28047
G1 X89.457 Y128.811 E11.30535
G1 X89.284 Y128.083 E11.33023
G1 X89.19 Y127.341 E11.35511
G1 X89.171 Y126.849 E11.37149
G1 X89.168 Y125.714 E11.40924
G1 X89.191 Y122.498 E11.5162
G1 X89.169 Y119.225 E11.62507
G1 X89.171 Y118.158 E11.66056
G1 X89.212 Y117.411 E11.68544
G1 X89.333 Y116.673 E11.71031
G1 X89.532 Y115.952 E11.73519
G1 X89.807 Y115.256 E11.76008
G1 X90.154 Y114.593 E11.78497
G1 X90.57 Y113.972 E11.80983
G1 X91.051 Y113.398 E11.83474
G1 X91.589 Y112.879 E11.8596
G1 X92.18 Y112.42 E11.88449
G0 F6000 X91.98 Y113.073
G1 F1200 X92.565 Y112.643 E11.90864
G1 X93.195 Y112.28 E11.93282
G1 X93.86 Y111.989 E11.95696
G1 X94.553 Y111.772 E11.98112
G1 X95.266 Y111.633 E12.00528
G1 X96.159 Y111.571 E12.03505
G1 X97.876 Y111.568 E12.09216
G1 X102.698 Y111.591 E12.25254
G1 X117.303 Y111.591 E12.73831
G1 X122.162 Y111.569 E12.89992
G1 X123.837 Y111.571 E12.95563
G1 X124.562 Y111.612 E12.97978
G1 X125.278 Y111.732 E13.00393
G1 X125.977 Y111.93 E13.02809
G1 X126.65 Y112.204 E13.05226
G1 X127.289 Y112.55 E13.07643
G1 X127.885 Y112.965 E13.10058
G1 X128.433 Y113.442 E13.12475
G1 X128.925 Y113.976 E13.1489
G1 X129.355 Y114.562 E13.17307
G1 X129.718 Y115.191 E13.19723
G1 X130.01 Y115.856 E13.22138
G1 X130.227 Y116.549 E13.24554
G1 X130.366 Y117.262 E13.2697
G1 X130.429 Y118.171 E13.3
G1 X130.429 Y126.829 E13.58797
G1 X130.389 Y127.554 E13.61212
G1 X130.27 Y128.271 E13.63629
G1 X130.072 Y128.97 E13.66046
G1 X129.799 Y129.643 E13.68461
G1 X129.454 Y130.282 E13.70877
G1 X129.04 Y130.879 E13.73293
G1 X128.564 Y131.427 E13.75707
G1 X128.03 Y131.92 E13.78124
G1 X127.445 Y132.35 E13.80539
G1 X126.816 Y132.714 E13.82956
G1 X126.151 Y133.007 E13.85373
G1 X125.458 Y133.225 E13.8779
G1 X124.746 Y133.365 E13.90203
G1 X123.833 Y133.429 E13.93247
G1 X118.959 Y133.432 E14.09458
G1 X106.008 Y133.409 E14.52533
G1 X98.778 Y133.431 E14.76581
G1 X96.166 Y133.429 E14.85268
G1 X95.441 Y133.388 E14.87683
G1 X94.724 Y133.268 E14.90101
G1 X94.025 Y133.071 E14.92517
G1 X93.353 Y132.797 E14.9493
G1 X92.714 Y132.451 E14.97347
G1 X92.117 Y132.037 E14.99764
G1 X91.569 Y131.56 E15.0218
G1 X91.077 Y131.026 E15.04595
G1 X90.647 Y130.441 E15.0701
G1 X90.283 Y129.812 E15.09427
G1 X89.991 Y129.147 E15.11843
G1 X89.774 Y128.454 E15.14258
G1 X89.634 Y127.741 E15.16675
G1 X89.571 Y126.848 E15.19652
G1 X89.568 Y125.716 E15.23417
G1 X89.591 Y122.498 E15.34121
G1 X89.569 Y119.226 E15.45004
G1 X89.571 Y118.159 E15.48552
G1 X89.612 Y117.433 E15.50971
G1 X89.733 Y116.717 E15.53386
G1 X89.932 Y116.019 E15.558
G1 X90.206 Y115.346 E15.58217
G1 X90.553 Y114.708 E15.60633
G1 X90.967 Y114.111 E15.63049
G1 X91.445 Y113.564 E15.65465
G1 X91.98 Y113.073 E15.6788
G0 F6000 X92.369 Y113.273
G1 F1200 X92.949 Y112.874 E15.70222
G1 X93.57 Y112.543 E15.72562
G1 X94.225 Y112.284 E15.74905
G1 X94.905 Y112.102 E15.77246
G1 X95.601 Y111.997 E15.79587
G1 X96.16 Y111.971 E15.81449
G1 X97.875 Y111.968 E15.87153
G1 X102.697 Y111.991 E16.03191
G1 X117.305 Y111.991 E16.51777
G1 X122.161 Y111.969 E16.67929
G1 X123.836 Y111.971 E16.735
G1 X124.539 Y112.012 E16.75842
G1 X125.233 Y112.132 E16.78184
G1 X125.908 Y112.33 E16.80524
G1 X126.557 Y112.603 E16.82866
G1 X127.171 Y112.949 E16.8521
G1 X127.741 Y113.361 E16.87549
G1 X128.261 Y113.836 E16.89892
G1 X128.724 Y114.366 E16.92232
G1 X129.124 Y114.946 E16.94576
G1 X129.455 Y115.567 E16.96916
G1 X129.714 Y116.221 E16.99256
G1 X129.898 Y116.901 E17.01599
G1 X130.002 Y117.597 E17.03939
G1 X130.029 Y118.171 E17.05851
G1 X130.029 Y126.829 E17.34647
G1 X129.989 Y127.532 E17.36989
G1 X129.87 Y128.226 E17.39331
G1 X129.672 Y128.901 E17.41671
G1 X129.4 Y129.55 E17.44011
G1 X129.055 Y130.164 E17.46354
G1 X128.644 Y130.735 E17.48694
G1 X128.17 Y131.256 E17.51036
G1 X127.64 Y131.72 E17.53379
G1 X127.061 Y132.12 E17.5572
G1 X126.44 Y132.452 E17.58062
G1 X125.786 Y132.712 E17.60403
G1 X125.106 Y132.896 E17.62746
G1 X124.41 Y133.002 E17.65088
G1 X123.833 Y133.029 E17.67009
G1 X118.96 Y133.032 E17.83216
G1 X106.008 Y133.009 E18.26295
G1 X98.778 Y133.031 E18.50342
G1 X96.166 Y133.029 E18.5903
G1 X95.463 Y132.988 E18.61372
G1 X94.77 Y132.869 E18.63711
G1 X94.094 Y132.671 E18.66053
G1 X93.445 Y132.398 E18.68395
G1 X92.832 Y132.053 E18.70735
G1 X92.261 Y131.641 E18.73077
G1 X91.741 Y131.166 E18.75419
G1 X91.277 Y130.636 E18.77762
G1 X90.877 Y130.057 E18.80103
G1 X90.546 Y129.436 E18.82443
G1 X90.286 Y128.781 E18.84787
G1 X90.103 Y128.102 E18.87126
G1 X89.998 Y127.406 E18.89467
G1 X89.971 Y126.846 E18.91332
G1 X89.968 Y125.719 E18.9508
G1 X89.991 Y122.498 E19.05794
G1 X89.969 Y119.226 E19.16677
G1 X89.971 Y118.159 E19.20225
G1 X90.012 Y117.457 E19.22564
G1 X90.133 Y116.763 E19.24907
G1 X90.332 Y116.088 E19.27248
G1 X90.605 Y115.439 E19.2959
G1 X90.951 Y114.826 E19.31931
G1 X91.364 Y114.256 E19.34272
G1 X91.839 Y113.736 E19.36615
G1 X92.369 Y113.273 E19.38955
G0 F6000 X92.758 Y113.482
G1 F1200 X93.331 Y113.114 E19.4122
G1 X93.943 Y112.816 E19.43484
G1 X94.586 Y112.592 E19.45749
G1 X95.25 Y112.445 E19.48011
G1 X96.161 Y112.371 E19.51051
G1 X97.873 Y112.368 E19.56745
G1 X102.695 Y112.391 E19.72783
G1 X117.307 Y112.391 E20.21383
G1 X122.161 Y112.369 E20.37528
G1 X123.836 Y112.371 E20.43099
G1 X124.516 Y112.412 E20.45364
G1 X125.186 Y112.532 E20.47628
G1 X125.837 Y112.73 E20.49892
G1 X126.461 Y113.003 E20.52157
G1 X127.049 Y113.347 E20.54423
G1 X127.592 Y113.757 E20.56686
G1 X128.083 Y114.229 E20.58951
G1 X128.516 Y114.754 E20.61214
G1 X128.884 Y115.327 E20.63479
G1 X129.182 Y115.939 E20.65743
G1 X129.407 Y116.582 E20.68009
G1 X129.555 Y117.247 E20.70275
G1 X129.629 Y118.171 E20.73358
G1 X129.629 Y126.829 E21.02155
G1 X129.589 Y127.509 E21.0442
G1 X129.47 Y128.179 E21.06684
G1 X129.273 Y128.831 E21.08949
G1 X129.001 Y129.455 E21.11213
G1 X128.657 Y130.043 E21.13479
G1 X128.247 Y130.587 E21.15745
G1 X127.776 Y131.078 E21.18008
G1 X127.251 Y131.512 E21.20273
G1 X126.679 Y131.881 E21.22537
G1 X126.067 Y132.18 E21.24803
G1 X125.425 Y132.405 E21.27065
G1 X124.76 Y132.554 E21.29332
G1 X123.833 Y132.629 E21.32425
G1 X118.961 Y132.632 E21.4863
G1 X106.008 Y132.609 E21.91711
G1 X98.779 Y132.631 E22.15755
G1 X96.167 Y132.629 E22.24443
G1 X95.487 Y132.589 E22.26708
G1 X94.817 Y132.469 E22.28972
G1 X94.165 Y132.271 E22.31239
G1 X93.541 Y131.998 E22.33504
G1 X92.953 Y131.655 E22.35768
G1 X92.41 Y131.244 E22.38033
G1 X91.919 Y130.773 E22.40296
G1 X91.486 Y130.248 E22.4256
G1 X91.117 Y129.675 E22.44826
G1 X90.819 Y129.063 E22.4709
G1 X90.594 Y128.42 E22.49356
G1 X90.446 Y127.756 E22.51619
G1 X90.371 Y126.845 E22.54659
G1 X90.368 Y125.722 E22.58394
G1 X90.391 Y122.498 E22.69118
G1 X90.369 Y119.227 E22.79997
G1 X90.371 Y118.16 E22.83546
G1 X90.412 Y117.48 E22.85812
G1 X90.533 Y116.81 E22.88076
G1 X90.731 Y116.159 E22.9034
G1 X91.004 Y115.535 E22.92605
G1 X91.349 Y114.948 E22.9487
G1 X91.76 Y114.405 E22.97135
G1 X92.232 Y113.914 E22.994
G1 X92.758 Y113.482 E23.01664
G0 F6000 X92.623 Y114.1
G1 F1200 X93.144 Y113.699 E23.0385
G1 X93.71 Y113.365 E23.06036
G1 X94.311 Y113.101 E23.0822
G1 X94.941 Y112.913 E23.10406
G1 X95.588 Y112.803 E23.12589
G1 X96.161 Y112.771 E23.14498
G1 X97.871 Y112.768 E23.20185
G1 X102.693 Y112.791 E23.36224
G1 X117.308 Y112.791 E23.84833
G1 X122.16 Y112.769 E24.00971
G1 X123.835 Y112.771 E24.06542
G1 X124.491 Y112.812 E24.08728
G1 X125.137 Y112.932 E24.10914
G1 X125.764 Y113.129 E24.131
G1 X126.361 Y113.402 E24.15283
G1 X126.922 Y113.744 E24.17468
G1 X127.437 Y114.153 E24.19656
G1 X127.898 Y114.621 E24.21841
G1 X128.299 Y115.141 E24.24025
G1 X128.634 Y115.706 E24.26209
G1 X128.897 Y116.308 E24.28394
G1 X129.086 Y116.937 E24.30579
G1 X129.197 Y117.585 E24.32765
G1 X129.229 Y118.171 E24.34717
G1 X129.229 Y126.829 E24.63514
G1 X129.189 Y127.485 E24.657
G1 X129.07 Y128.131 E24.67885
G1 X128.873 Y128.758 E24.70071
G1 X128.601 Y129.356 E24.72256
G1 X128.259 Y129.917 E24.74441
G1 X127.851 Y130.432 E24.76626
G1 X127.384 Y130.894 E24.78811
G1 X126.864 Y131.295 E24.80995
G1 X126.3 Y131.631 E24.83179
G1 X125.698 Y131.895 E24.85365
G1 X125.069 Y132.085 E24.87551
G1 X124.422 Y132.196 E24.89734
G1 X123.832 Y132.229 E24.91699
G1 X118.961 Y132.232 E25.079
G1 X106.006 Y132.209 E25.50989
G1 X98.779 Y132.231 E25.75026
G1 X96.167 Y132.229 E25.83714
G1 X95.511 Y132.189 E25.859
G1 X94.865 Y132.069 E25.88085
G1 X94.239 Y131.871 E25.90269
G1 X93.641 Y131.599 E25.92454
G1 X93.08 Y131.257 E25.94639
G1 X92.565 Y130.849 E25.96824
G1 X92.104 Y130.381 E25.99009
G1 X91.702 Y129.861 E26.01195
G1 X91.367 Y129.296 E26.0338
G1 X91.103 Y128.694 E26.05566
G1 X90.914 Y128.065 E26.07751
G1 X90.803 Y127.418 E26.09934
